src/icon/pos_sale_avatar.svg

<svg fill="none" height="24" viewBox="0 0 24 24" width="24" xmlns="http://www.w3.org/2000/svg"><path clip-rule="evenodd" d="m1.11157 1.28603c.20105-.297403.60513-.375512.90253-.17446l1.57282 1.06326c.12947.08752.22307.21876.26366.36968l1.0235 3.80549h16.95222c.1998 0 .3885.09187.5117.24915.1232.15727.1672.36246.1194.55644l-1.8267 7.40921c-.0715.2904-.332.4944-.6311.4944h-13.63107c-.00872 0-.01741-.0002-.02606-.0005h-.46572c-.81546 0-1.47653.661-1.47653 1.4765s.66107 1.4765 1.47653 1.4765h.29079c.39444-1.1682 1.48675-2.0081 2.7725-2.0081 1.28576 0 2.37806.8399 2.77246 2.0081h3.3684c.3944-1.1682 1.4867-2.0081 2.7724-2.0081 1.2858 0 2.3781.8399 2.7725 2.0081h.4237c.359 0 .65.291.65.65 0 .3589-.291.65-.65.65h-.285c-.1651 1.482-1.4055 2.6337-2.9112 2.6337-1.5056 0-2.746-1.1517-2.9111-2.6337h-3.091c-.1651 1.482-1.4055 2.6337-2.91116 2.6337-1.50563 0-2.74599-1.1517-2.9111-2.6337h-.15219c-1.53343 0-2.77653-1.2431-2.77653-2.7765 0-1.4147 1.05812-2.5824 2.42614-2.7546l-2.86824-10.66447-1.37209-.92757c-.297403-.20105-.375512-.60513-.17446-.90253zm18.37883 12.47317h-12.56835c-.00868-.0003-.01741-.0005-.02618-.0005h-.0292l-1.64295-6.1087h15.77288zm-1.6371 6.8862c.8831 0 1.6298-.7309 1.6298-1.6709 0-.9399-.7467-1.6709-1.6298-1.6709-.883 0-1.6297.731-1.6297 1.6709 0 .94.7467 1.6709 1.6297 1.6709zm-7.2835-1.6709c0 .94-.74668 1.6709-1.62976 1.6709s-1.62977-.7309-1.62977-1.6709c0-.9399.74669-1.6709 1.62977-1.6709s1.62976.731 1.62976 1.6709z" fill="#fff" fill-rule="evenodd"/></svg>

<svg width="24" height="24" viewBox="0 0 24 24" fill="none" xmlns="http://www.w3.org/2000/svg">
<path fill-rule="evenodd" clip-rule="evenodd" d="M1.11157 1.28603C1.31262 0.988627 1.7167 0.910518 2.0141 1.11157L3.58692 2.17483C3.71639 2.26235 3.80999 2.39359 3.85058 2.54451L4.87408 6.35H21.8263C22.0261 6.35 22.2148 6.44187 22.338 6.59915C22.4612 6.75642 22.5052 6.96161 22.4574 7.15559L20.6307 14.5648C20.5592 14.8552 20.2987 15.0592 19.9996 15.0592H6.36853C6.35981 15.0592 6.35112 15.059 6.34247 15.0587H5.87675C5.06129 15.0587 4.40022 15.7197 4.40022 16.5352C4.40022 17.3507 5.06129 18.0117 5.87675 18.0117H6.16754C6.56198 16.8435 7.65429 16.0036 8.94004 16.0036C10.2258 16.0036 11.3181 16.8435 11.7125 18.0117H15.0809C15.4753 16.8435 16.5676 16.0036 17.8533 16.0036C19.1391 16.0036 20.2314 16.8435 20.6258 18.0117H21.0495C21.4085 18.0117 21.6995 18.3027 21.6995 18.6617C21.6995 19.0206 21.4085 19.3117 21.0495 19.3117H20.7645C20.5994 20.7937 19.359 21.9454 17.8533 21.9454C16.3477 21.9454 15.1073 20.7937 14.9422 19.3117H11.8512C11.6861 20.7937 10.4457 21.9454 8.94004 21.9454C7.43441 21.9454 6.19405 20.7937 6.02894 19.3117H5.87675C4.34332 19.3117 3.10022 18.0686 3.10022 16.5352C3.10022 15.1205 4.15834 13.9528 5.52636 13.7806L2.65812 3.11613L1.28603 2.18856C0.988627 1.98751 0.910518 1.58343 1.11157 1.28603ZM19.4904 13.7592H6.92205C6.91337 13.7589 6.90464 13.7587 6.89587 13.7587H6.86667L5.22372 7.65H20.9966L19.4904 13.7592ZM17.8533 20.6454C18.7364 20.6454 19.4831 19.9145 19.4831 18.9745C19.4831 18.0346 18.7364 17.3036 17.8533 17.3036C16.9703 17.3036 16.2236 18.0346 16.2236 18.9745C16.2236 19.9145 16.9703 20.6454 17.8533 20.6454ZM10.5698 18.9745C10.5698 19.9145 9.82312 20.6454 8.94004 20.6454C8.05696 20.6454 7.31027 19.9145 7.31027 18.9745C7.31027 18.0346 8.05696 17.3036 8.94004 17.3036C9.82312 17.3036 10.5698 18.0346 10.5698 18.9745Z" fill="white"/>
</svg>
